X:18618
T:Westmorland Hornpipe. BF13.040
T:Liverpool Hornpipe,aka. BF13.040
M:4/4
Q:160
S:J.Lishman(?)MS,c1825,Lakes,Browne Coll.
R:Hornpipe
O:England
A:Lakes
Z:vmp.Chris Partington
K:D
AG|FDFA dfaf|gefd dcBA|GBGB FAFA|EFGA GFED|!
FDFA dfaf|gefe dcBA|afdf gece|d2d2d2::!
fg|afdf cdec|BcdB BAGF|GBGB FGFG|EFGA GFED|!
FDFA dfaf|gefd dcBA|afdf gece|d2d2d2:|]


